/* XPM */
static char * icon128[]={
"32 32 3 1",
/* colors */
"   c  #000000",
".  c  #ffffff",
"X  c  None",
/* pixels */
"XX...XX......XX......XX......X X",
"X.X.XXXX......XX....XX......X .X",
"XX. X..XX......XX..XX......X .XX",
"X. XX...XX.XXXXX    ......X .X.X",
"X XX.X...  XXXXXX  XXX...X .X.XX",
" XX.X.XXXX  XXXXXXXXXXXXX .X.X.X",
" X.X.X.XXX  XXXXX  XXXXXXX .X.XX",
"X.X. XXXX  XXXXX    XXXXXXX .X.X",
"XX.X.  X  XXXXX  XX  XXXXXXX .XX",
"X.X.XX   XXXXX  XXXX  XXXXXXX .X",
"XX.XXX  XXXX.XX....XX  XXXX.XX X",
"X.XXX  XXXX. XXX X...X  XXXX.XX ",
"XX.X  XXX..XXX..XXX...X  XXXX.X ",
"X.X  XXX.. XX.XXXX X.X.X  XXXX. ",
"XX  XXX.X XX.XXXXXX .X.X XXXX.  ",
"XX XXX.XXX.X.XXXX XX..  .XXXX XX",
"XX  XXX..X .XXXX XXX.XX.XXXX XXX",
"X.X  XXXX. X.XX XXX. XXXXXX  X.X",
"XXXX  XXXXXXX.  XX.XXXXXXX  X.XX",
"X.XXX  XXXXX XX...X XXXXX    X.X",
"XX.XXX  XXXXXXXXX  XXXXX  XX XXX",
"X.XXXX  XXXXXXXX  XXXXX  XXX. XX",
"XX.XX  XXXXXXXX  XXXXX  XXX.X.XX",
"X.X.  XXXXXXXX  XXXXXX  XXXX.X.X",
"XX. XXXXXXXXX  XXXXXXXX  XX.X.XX",
"X. X XXXXXXXXX  XXXXXXXX  .X.X.X",
"X XX.  XXXXXXXX  XXXXXXX.  .X.XX",
" XX.XXXXXXXXXXXX  XXXXX...  .X.X",
" X.XX.XXX.XXXXXXX  XX..X...  .XX",
"X.XX.... X...X....X .....X..  .X",
"XXX..X...X .....X..XX.X......  X",
"XXXXXXXXXX  XXXXXXXX  XXXXXXXX  "}
